X:111
T: Der Bauer ins Holz
N: A0472B
O: Europa, Mitteleuropa, Deutschland
N: Werlin 1646.
R: Romanze, Ballade, Lied
M: 4/4
L: 1/4
K: D
D | DDAB | =c2B
A | dAA=F | EEE2 | z
DDD | AB=c2 | B
AAG | =FEDD | D3

